src/icons/javascript.svg

<svg width="60" height="60" viewBox="0 0 60 60" fill="none" xmlns="http://www.w3.org/2000/svg">
<g clip-path="url(#clip0_173_281)">
<path d="M0.660004 0.659973H59.34V59.3404H0.660004V0.659973Z" fill="#F0DB4F"/>
<path d="M54.5377 45.345C54.1078 42.6679 52.3622 40.4193 47.1914 38.3226C45.3952 37.4972 43.3927 36.9061 42.7959 35.5448C42.5841 34.7526 42.5559 34.3064 42.69 33.8268C43.0748 32.2706 44.9325 31.7854 46.4048 32.2317C47.3531 32.5495 48.2508 33.2803 48.7922 34.4461C51.3244 32.8064 51.3192 32.8172 53.0873 31.6903C52.44 30.6867 52.0945 30.2236 51.6708 29.7942C50.1478 28.0931 48.0727 27.217 44.7539 27.284L43.0252 27.5076C41.3686 27.9262 39.7898 28.7958 38.8641 29.9615C36.0862 33.1134 36.8784 38.6297 40.2586 40.8998C43.5886 43.3992 48.4805 43.9678 49.1053 46.305C49.7133 49.1662 47.0025 50.0925 44.3081 49.7634C42.3225 49.3504 41.2181 48.3412 40.0242 46.5061C37.8267 47.7778 37.8267 47.7778 35.5673 49.0772C36.1031 50.2486 36.6661 50.7787 37.5642 51.7936C41.8148 56.1051 52.4517 55.8933 54.3595 49.3673C54.4369 49.1433 54.9506 47.6489 54.5377 45.345ZM32.5603 27.6295H27.0717L27.0492 41.8195C27.0492 44.8373 27.2053 47.6039 26.7145 48.4518C25.9116 50.1197 23.8308 49.9129 22.8825 49.5895C21.9173 49.1151 21.4266 48.4406 20.858 47.4872C20.7019 47.2134 20.5847 47.0015 20.5453 46.9851L16.0828 49.7179C16.8248 51.2409 17.918 52.5628 19.3181 53.4215C21.4097 54.6768 24.2208 55.0617 27.1608 54.3867C29.0742 53.8293 30.7252 52.6748 31.5895 50.9175C32.8392 48.6136 32.5711 45.825 32.5598 42.7406C32.588 37.7086 32.5603 32.6775 32.5603 27.6295Z" fill="#323330"/>
</g>
<defs>
<clipPath id="clip0_173_281">
<rect width="60" height="60" fill="white"/>
</clipPath>
</defs>
</svg>

<svg xmlns="http://www.w3.org/2000/svg" width="60" height="60" fill="none"><g clip-path="url(#a)"><path fill="#F0DB4F" d="M.66.66h58.68v58.68H.66V.66Z"/><path fill="#323330" d="M54.538 45.345c-.43-2.677-2.176-4.926-7.347-7.022-1.796-.826-3.798-1.417-4.395-2.778-.212-.792-.24-1.239-.106-1.718.385-1.556 2.242-2.042 3.715-1.595.948.318 1.846 1.048 2.387 2.214 2.532-1.64 2.527-1.629 4.295-2.756-.647-1.003-.993-1.466-1.416-1.896-1.523-1.7-3.598-2.577-6.917-2.51l-1.729.224c-1.656.418-3.235 1.288-4.16 2.454-2.779 3.151-1.987 8.668 1.394 10.938 3.33 2.5 8.221 3.068 8.846 5.405.608 2.861-2.102 3.788-4.797 3.458-1.986-.413-3.09-1.422-4.284-3.257-2.197 1.272-2.197 1.272-4.457 2.571.536 1.172 1.1 1.702 1.997 2.717 4.25 4.311 14.888 4.1 16.795-2.427.078-.224.592-1.718.179-4.022ZM32.56 27.63h-5.488l-.023 14.19c0 3.017.156 5.784-.334 6.632-.803 1.668-2.884 1.46-3.832 1.138-.966-.475-1.456-1.15-2.025-2.103-.156-.274-.273-.486-.313-.502l-4.462 2.733c.742 1.523 1.835 2.845 3.235 3.703 2.092 1.256 4.903 1.64 7.843.966 1.913-.558 3.564-1.712 4.428-3.47 1.25-2.303.982-5.092.97-8.176.029-5.032.001-10.063.001-15.111Z"/></g><defs><clipPath id="a"><path fill="#fff" d="M0 0h60v60H0z"/></clipPath></defs></svg>
